X: 122a
T: The Geese in the Bog
R:jig
M:6/8
K:D
"D"dFF AFF|dFF "A"ABc|"D"dFF "A"AFE|"Bm"FBB B2c|
"D"dFF AFF|dFF "A"ABc|"D"dcB "A"AFE|"Bm"FBB B2c:|
|:"D"def "A"afe|"Bm"f2b "A" afe|"D"def "A" afe|"Bm"fbb b2c|
"D"def ~a3|"Bm"f2b "A"afe|"D"dcB "A"AFE|"Bm"FBB B2c:|


